X:1
T:The Tea Tax
M:4/4
L:1/8
K:F
 c2| AF FF FF F F/2F/2| GG cB AF z F| GG GG GG Gc| =Bc df ec z/2 c/2c/2 c/2|\
 fe dc BB BA| BB Bd cc AG| FF FG AA AG| FD GF FE DC| F2 F3/2 F/2 F2 z2|\
 c2 d3/2 e/2f/2 d3/2 c/2 B3/2| A2 F3/2 F/2 F2||

